icons/pinyin-input.svg

<svg xmlns="http://www.w3.org/2000/svg" width="24" height="24" fill="none"><g clip-path="url(#a)"><path fill="#121212" d="M17.934 3.036L19.666 4.036L18.531 6H21V8H19V12H21V14H19V21H17V14H13.916C13.591 16.862 12.352 19.394 10.546 21.193L8.984 19.923C10.504 18.485 11.58 16.401 11.901 14.001L10 14V12L12 11.999V8H10V6H12.467L11.334 4.036L13.066 3.036L14.777 6H16.221L17.934 3.036ZM5 13.803L3 14.339V12.268L5 11.732V8H3V6H5V3H7V6H9V8H7V11.197L9 10.661V12.731L7 13.267V18.5C7 18.8283 6.93534 19.1534 6.8097 19.4567C6.68406 19.76 6.49991 20.0356 6.26777 20.2678C6.03562 20.4999 5.76002 20.6841 5.45671 20.8097C5.15339 20.9353 4.8283 21 4.5 21H3V19H4.5C4.61703 19 4.73036 18.959 4.82026 18.8841C4.91016 18.8092 4.97094 18.7051 4.992 18.59L5 18.5V13.803ZM17 8H14V12H17V8Z"/></g><defs><clipPath id="a"><rect width="24" height="24" fill="white"/></clipPath></defs></svg>

<svg width="24" height="24" fill="none" xmlns="http://www.w3.org/2000/svg"><g clip-path="url(#a)"><path d="m17.934 3.036 1.732 1L18.531 6H21v2h-2v4h2v2h-2v7h-2v-7h-3.084c-.325 2.862-1.564 5.394-3.37 7.193l-1.562-1.27c1.52-1.438 2.596-3.522 2.917-5.922L10 14v-2l2-.001V8h-2V6h2.467l-1.133-1.964 1.732-1L14.777 6h1.444l1.713-2.964ZM5 13.803l-2 .536v-2.071l2-.536V8H3V6h2V3h2v3h2v2H7v3.197l2-.536v2.07l-2 .536V18.5A2.5 2.5 0 0 1 4.5 21H3v-2h1.5a.5.5 0 0 0 .492-.41L5 18.5v-4.697ZM17 8h-3v4h3V8Z" /></g><defs><clipPath id="a"><path fill="#fff" d="M0 0h24v24H0z"/></clipPath></defs></svg>
